!!!!SEGMENT: pl-wnifc--13846--158_anonim--piesni-polskie-i-ruskie-ludu-galicyjskiego-158-bodaj-sia-kohut-znudyw.krn
!!!kernsource:
!!!cenid: 18xx:3380
!!!COM: Anonim
!!!COM-rismID:
!!!CDT:
!!!CNT:
!!!GTL: Pieśni polskie i ruskie ludu galicyjskiego
!!!OTL: 158. Bodaj sia kohut znudyw
!!!PDT: 1833
!!!AGN:
!!!SMS-siglum: PL-Wnifc
!!!SMS-shelfmark: 13846
!!!SMS-shelfwork: 158 G
!!!NIFC-rismSourceID: 1001039692
!!!NIFC-islandoraID:
!!!URL-pdf-islandora:
!!!URL-scan:
!!!ONB-nifc:
!!!OMD: Moderato
!!!AIN: 2 empty
!!!key:
**kern	**kern	**kern	**text
*part2	*part2	*part1	*part1
*staff3	*staff2	*staff1	*staff1
*Iempty	*Iempty	*Iempty	*
*I"	*I"	*I"	*
*clefF4	*clefG2	*clefG2	*
*k[]	*k[]	*k[]	*
*C:	*C:	*C:	*
*M3/4	*M3/4	*M3/4	*
=1-	=1-	=1-	=1-
!LO:TX:t=P:problem=mixed beam	!	!	!
8CC/L	4g/	4g/	Bo-
*ped	*	*	*
8G\`	.	.	.
(8e\ 8c\	4cc\	4cc\	-daj
*Xped	*	*	*
8G\)	.	.	.
(8e\ 8c\	4cc\	4cc\	sia
8G\J)	.	.	.
=2	=2	=2	=2
*tremolo	*	*	*
8e\ 8c\L	2cc\	2cc\	ko-
8G\	.	.	.
8e\ 8c\	.	.	.
8G\J	.	.	.
*Xtremolo	*	*	*
8d\L 8B\	4dd\	4dd\	-hut
8G\J	.	.	.
=3	=3	=3	=3
*tremolo	*	*	*
8e\ 8c\L	4ee\	4ee\	znu-
8G\	.	.	.
8e\ 8c\	2cc\	2cc\	-dyw
8G\	.	.	.
8e\ 8c\	.	.	.
8G\J	.	.	.
*Xtremolo	*	*	*
=4	=4	=4	=4
!LO:TX:t=P:problem=mixed beam	!	!	!
(8GG/L	4b\	4b\	szo
8G\J)	.	.	.
*tremolo	*	*	*
(8d\ 8B\L	4dd\	4dd\	me-
8G\	.	.	.
8d\ 8B\	4dd\	4dd\	-ne
8G\)J	.	.	.
*Xtremolo	*	*	*
!!LO:LB:g=original
=5	=5	=5	=5
*tremolo	*	*	*
(8d\ 8B\L	2dd\	2dd\	ra-
8G\	.	.	.
8d\ 8B\	.	.	.
8G\)J	.	.	.
(8e\L 8c\	4ee\	4ee\	-no
8G\J)	.	.	.
*Xtremolo	*	*	*
=6	=6	=6	=6
*tremolo	*	*	*
(8d\ 8B\L	4ff\	4ff\	zbu-
8G\	.	.	.
8d\ 8B\	2dd\	2dd\	-dyw,
8G\	.	.	.
8d\ 8B\	.	.	.
8G\)J	.	.	.
*Xtremolo	*	*	*
=7!|:	=7!|:	=7!|:	=7!|:
!LO:TX:t=P:problem=mixed beam	!	!	!
8CC/L	4cc/ 4g/	4cc\	ma-
8G\J	.	.	.
*tremolo	*	*	*
(8e\ 8c\L	4ee\ 4g\	4ee\	-ła-
8G\	.	.	.
8e\ 8c\	4ee\ 4g\	4ee\	-ja
8G\)J	.	.	.
*Xtremolo	*	*	*
=8	=8	=8	=8
*tremolo	*	*	*
(8e\ 8c\L	(2ee\ 2g\	2ee\	nicz-
8G\	.	.	.
8e\ 8c\	.	.	.
8G\	.	.	.
8e\ 8c\	4gg\ 4g\^<)	4gg\	-ka,
8G\)J	.	.	.
*Xtremolo	*	*	*
!!LO:LB:g=original
=9	=9	=9	=9
*tremolo	*	*	*
8d\ 8B\L	(8gg\L	(8gg\L	ma-
8G\	8ff\J)	8ff\J)	.
8d\ 8B\	2ff\^<	2ff\	-ła,
8G\	.	.	.
8d\ 8B\	.	.	.
8G\J	.	.	.
*Xtremolo	*	*	*
=10	=10	=10	=10
!LO:TX:t=P:problem=mixed beam	!	!	!
(8GG/L	4ff\	4ff\	je-
8G\J)	.	.	.
(8d\L 8B\	4dd\	4dd\	-szczem
8G\)	.	.	.
(8e\ 8c\	4cc\	4cc\	sia
8G\J)	.	.	.
=11	=11	=11	=11
*tremolo	*	*	*
(8d\ 8B\L	2b\	2b\	ne
8G\	.	.	.
8d\ 8B\	.	.	.
8G\	.	.	.
8d\ 8B\	4dd\	4dd\	wy-
8G\)J	.	.	.
*Xtremolo	*	*	*
=12	=12	=12	=12
*tremolo	*	*	*
(8e\ 8c\L	(8dd\L	(8dd\L	-spa-
8G\	8cc\J)	8cc\J)	.
8e\ 8c\	2cc\	2cc\	-ła.
8G\)J	.	.	.
4C/	.	.	.
*Xtremolo	*	*	*
==:|!	==:|!	==:|!	==:|!
*-	*-	*-	*-
!!!system-decoration: s1,{(s2,s3)}
!!!RDF**kern: > = above
!!!RDF**kern: < = below
!!!ENC: Leszek Kubiak
!!!END: 2021-11-12
